icons/ArrowCornerRightUp_filled.svg

<svg width="24" height="24" viewBox="0 0 24 24" fill="none" xmlns="http://www.w3.org/2000/svg">
<path fill-rule="evenodd" clip-rule="evenodd" d="M15.1161,4.11608c0.4882,-0.48815 1.2796,-0.48815 1.7678,0l4,4c0.4881,0.48816 0.4881,1.27962 0,1.76777c-0.4882,0.48815 -1.2796,0.48815 -1.7678,0l-1.8661,-1.86612v8.48227c0,1.7949 -1.4551,3.25 -3.25,3.25h-11c-0.69036,0 -1.25,-0.5597 -1.25,-1.25c0,-0.6904 0.55964,-1.25 1.25,-1.25h11c0.4142,0 0.75,-0.3358 0.75,-0.75v-8.48227l-1.8661,1.86612c-0.4882,0.48815 -1.2796,0.48815 -1.7678,0c-0.4881,-0.48816 -0.4881,-1.27961 0,-1.76777z" fill="#002B51"/>
</svg>

<svg width="24" height="24" viewBox="0 0 24 24" fill="none" xmlns="http://www.w3.org/2000/svg">
<path fill-rule="evenodd" clip-rule="evenodd" d="M15.1161 4.11608C15.6043 3.62793 16.3957 3.62793 16.8839 4.11608L20.8839 8.11608C21.372 8.60424 21.372 9.3957 20.8839 9.88385C20.3957 10.372 19.6043 10.372 19.1161 9.88385L17.25 8.01773L17.25 16.5C17.25 18.2949 15.7949 19.75 14 19.75H3C2.30964 19.75 1.75 19.1903 1.75 18.5C1.75 17.8096 2.30964 17.25 3 17.25L14 17.25C14.4142 17.25 14.75 16.9142 14.75 16.5L14.75 8.01773L12.8839 9.88385C12.3957 10.372 11.6043 10.372 11.1161 9.88385C10.628 9.39569 10.628 8.60424 11.1161 8.11608L15.1161 4.11608Z" fill="#002B51"/>
</svg>
